src/actions/24/kdenlive-track_has_effect.svg

<svg xmlns="http://www.w3.org/2000/svg" viewBox="0 0 24 24">
    <path d="M11 3 8 9H3l4 4-1 6 5-3 5 3-1-6 4-4h-5l-3-6zm2 0v1h6V3h-6zm1 2v1h5V5h-5zm1 2v1h4V7h-4zm2 5v1h2v-1h-2zm-1 2v1h3v-1h-3zm1 2v1h2v-1h-2zm0 2v1h2v-1h-2z" style="fill:currentColor;fill-opacity:1;stroke:none;color:#050505;opacity:.7" transform="translate(1 1)"/>
</svg>

<svg xmlns="http://www.w3.org/2000/svg" viewBox="0 0 24 24">
  <defs id="defs3051">
    <style type="text/css" id="current-color-scheme">
      .ColorScheme-Text {
        color:#363636;
      }
      </style>
  </defs><g transform="translate(1,1)">
 <path 
     style="fill:currentColor;fill-opacity:1;stroke:none" 
     d="M 11 3 L 8 9 L 3 9 L 7 13 L 6 19 L 11 16 L 16 19 L 15 13 L 19 9 L 14 9 L 11 3 z M 13 3 L 13 4 L 19 4 L 19 3 L 13 3 z M 14 5 L 14 6 L 19 6 L 19 5 L 14 5 z M 15 7 L 15 8 L 19 8 L 19 7 L 15 7 z M 17 12 L 17 13 L 19 13 L 19 12 L 17 12 z M 16 14 L 16 15 L 19 15 L 19 14 L 16 14 z M 17 16 L 17 17 L 19 17 L 19 16 L 17 16 z M 17 18 L 17 19 L 19 19 L 19 18 L 17 18 z "
     class="ColorScheme-Text"
     />
</g></svg>
